report_00007_2020-12-11T15:55:29.892Z/bootup-time/comparison/line/0_vs_1.svg

<svg width="640" height="500" xmlns="http://www.w3.org/2000/svg" xmlns:xlink="http://www.w3.org/1999/xlink"><path fill="#fff" d="M0 0h640v500H0z"/><defs><path id="d" stroke-width=".222" stroke="currentColor" d="M-1-1h2v2h-2z"/><path id="b" stroke-width=".222" stroke="currentColor" d="M0-1.33l-1.33 2h2.66z"/><path id="f" stroke-width=".222" stroke="currentColor" d="M0 1.33L1.265.411.782-1.067l-1.564-.009-.483 1.487z"/><use xlink:href="#b" id="c" stroke="currentColor" transform="rotate(180)"/><use xlink:href="#d" id="e" stroke="currentColor" transform="rotate(45)"/><circle id="a" stroke-width=".222" stroke="currentColor" cx="0" cy="0" r="1"/></defs><g fill="none" color="#000" stroke="currentColor"><path stroke="#000" d="M53.9 422.7h9m552.1 0h-9"/><text transform="translate(45.6 426.6)" stroke="none" fill="#000" font-family="Arial" font-size="12" text-anchor="end"><tspan>0</tspan></text></g><g fill="none" color="#000" stroke="currentColor"><path stroke="#000" d="M53.9 369.5h9m552.1 0h-9"/><text transform="translate(45.6 373.4)" stroke="none" fill="#000" font-family="Arial" font-size="12" text-anchor="end"><tspan>100</tspan></text></g><g fill="none" color="#000" stroke="currentColor"><path stroke="#000" d="M53.9 316.2h9m552.1 0h-9"/><text transform="translate(45.6 320.1)" stroke="none" fill="#000" font-family="Arial" font-size="12" text-anchor="end"><tspan>200</tspan></text></g><g fill="none" color="#000" stroke="currentColor"><path stroke="#000" d="M53.9 263h9m552.1 0h-9"/><text transform="translate(45.6 266.9)" stroke="none" fill="#000" font-family="Arial" font-size="12" text-anchor="end"><tspan>300</tspan></text></g><g fill="none" color="#000" stroke="currentColor"><path stroke="#000" d="M53.9 209.7h9m552.1 0h-9"/><text transform="translate(45.6 213.6)" stroke="none" fill="#000" font-family="Arial" font-size="12" text-anchor="end"><tspan>400</tspan></text></g><g fill="none" color="#000" stroke="currentColor"><path stroke="#000" d="M53.9 156.5h9m552.1 0h-9"/><text transform="translate(45.6 160.4)" stroke="none" fill="#000" font-family="Arial" font-size="12" text-anchor="end"><tspan>500</tspan></text></g><g fill="none" color="#000" stroke="currentColor"><path stroke="#000" d="M53.9 103.3h9m552.1 0h-9"/><text transform="translate(45.6 107.2)" stroke="none" fill="#000" font-family="Arial" font-size="12" text-anchor="end"><tspan>600</tspan></text></g><g fill="none" color="#000" stroke="currentColor"><path stroke="#000" d="M53.9 50h9M615 50h-9"/><text transform="translate(45.6 53.9)" stroke="none" fill="#000" font-family="Arial" font-size="12" text-anchor="end"><tspan>700</tspan></text></g><g fill="none" color="#000" stroke="currentColor"><path stroke="#000" d="M53.9 428v-9m0-400.9v9"/><text transform="translate(53.9 449.9)" stroke="none" fill="#000" font-family="Arial" font-size="12" text-anchor="middle"><tspan>0</tspan></text></g><g fill="none" color="#000" stroke="currentColor"><path stroke="#000" d="M110.6 428v-9m0-400.9v9"/><text transform="translate(110.6 449.9)" stroke="none" fill="#000" font-family="Arial" font-size="12" text-anchor="middle"><tspan>10</tspan></text></g><g fill="none" color="#000" stroke="currentColor"><path stroke="#000" d="M167.3 428v-9m0-400.9v9"/><text transform="translate(167.3 449.9)" stroke="none" fill="#000" font-family="Arial" font-size="12" text-anchor="middle"><tspan>20</tspan></text></g><g fill="none" color="#000" stroke="currentColor"><path stroke="#000" d="M223.9 428v-9m0-400.9v9"/><text transform="translate(223.9 449.9)" stroke="none" fill="#000" font-family="Arial" font-size="12" text-anchor="middle"><tspan>30</tspan></text></g><g fill="none" color="#000" stroke="currentColor"><path stroke="#000" d="M280.6 428v-9m0-400.9v9"/><text transform="translate(280.6 449.9)" stroke="none" fill="#000" font-family="Arial" font-size="12" text-anchor="middle"><tspan>40</tspan></text></g><g fill="none" color="#000" stroke="currentColor"><path stroke="#000" d="M337.3 428v-9m0-400.9v9"/><text transform="translate(337.3 449.9)" stroke="none" fill="#000" font-family="Arial" font-size="12" text-anchor="middle"><tspan>50</tspan></text></g><g fill="none" color="#000" stroke="currentColor"><path stroke="#000" d="M394 428v-9m0-400.9v9"/><text transform="translate(394 449.9)" stroke="none" fill="#000" font-family="Arial" font-size="12" text-anchor="middle"><tspan>60</tspan></text></g><g fill="none" color="#000" stroke="currentColor"><path stroke="#000" d="M450.6 428v-9m0-400.9v9"/><text transform="translate(450.6 449.9)" stroke="none" fill="#000" font-family="Arial" font-size="12" text-anchor="middle"><tspan>70</tspan></text></g><g fill="none" color="#000" stroke="currentColor"><path stroke="#000" d="M507.3 428v-9m0-400.9v9"/><text transform="translate(507.3 449.9)" stroke="none" fill="#000" font-family="Arial" font-size="12" text-anchor="middle"><tspan>80</tspan></text></g><g fill="none" color="#000" stroke="currentColor"><path stroke="#000" d="M564 428v-9m0-400.9v9"/><text transform="translate(564 449.9)" stroke="none" fill="#000" font-family="Arial" font-size="12" text-anchor="middle"><tspan>90</tspan></text></g><path stroke="#000" d="M53.9 18.1V428H615V18.1H53.9z" fill="none" color="#000"/><text transform="translate(275.6 467.9)" stroke="none" fill="#000" font-family="Arial" font-size="12" text-anchor="end" color="#000"><tspan>empty</tspan></text><path stroke="#9400D3" d="M283.9 464h42.2M53.9 419.4l5.7.2 5.6-.3h5.7l5.7.3 5.6-.2h5.7l5.7-.2 5.6.4 5.7-.4h11.3l5.7.2 5.7-.7 5.6.9 5.7-.1 5.7-.3 5.7.4h5.6l5.7-.5 5.7.5 5.6-.1 5.7.1 5.7-.3 5.6.3 5.7-.6 5.7.3 5.6.2h5.7l5.7-.1 5.6.1 5.7-.1 5.7-.1 5.6.6 5.7-.3 5.7-.8 5.6.7 5.7-.5 5.7.6 5.6-.2 5.7.1 5.7.2 5.6-.6 5.7.5 5.7-.7 5.6.6 5.7-.1h5.7l5.6.7 5.7-1.2 5.7.4 5.7.3 5.6-.1 5.7-.3 5.7.4 5.6.1 5.7-.1h11.3l5.7-.1 5.7-.2 5.6.3 5.7-.1 5.7.1 5.6.3 5.7-.3h11.3l5.7-.1 5.7-.2 5.6.2 5.7-.3 5.7.4h22.6l5.7.3 5.7-.3h5.6l5.7-.4 5.7.7 5.6-.4 5.7.1 5.7-.1 5.7.1 5.6.1 5.7-.2 5.7.1h5.6l5.7.2 5.7.2 5.6-.5h5.7l5.7.5 5.6-.8 5.7.4h5.7l5.6-.6 5.7 1" fill="none" color="#000"/><text transform="translate(275.6 485.9)" stroke="none" fill="#000" font-family="Arial" font-size="12" text-anchor="end" color="#000"><tspan>pages</tspan></text><path stroke="#009E73" d="M283.9 482h42.2M53.9 26l5.7 29.4 5.6 67.4 5.7-15.8 5.7 10.2 5.6-19.8 5.7 15.7 5.7-.4 5.6-11.8 5.7-.2 5.7 10.8 5.6 11.8 5.7-4.9 5.7-9.9 5.6 14.9 5.7-20.3 5.7 5.4 5.7-4 5.6 5.2 5.7-10.4 5.7.4 5.6 6.2 5.7 8.5 5.7 1.4 5.6-14.9 5.7 6.5 5.7 2.4 5.6 12.4 5.7-8.7 5.7 1.9 5.6-13.6 5.7-2.7 5.7 18.4 5.6-6.3 5.7 7.1 5.7-6.1 5.6.2 5.7 1.2 5.7-8 5.6-.1 5.7 5.6 5.7 1.6 5.6-.1 5.7-18.2 5.7 3.7 5.6 6.4 5.7-2 5.7 11 5.6-2.5 5.7-12.2 5.7 15.3 5.7 4.9 5.6 8.5 5.7-18.1 5.7.2 5.6-4.5 5.7 14.7L377 104l5.6 8.4 5.7-.8 5.7-6.8 5.6 10.2 5.7-15.3 5.7 12.9 5.6-3.6 5.7-2.5 5.7-3.2 5.6 13.1 5.7-11.7 5.7 18.5 5.6-13.2 5.7 12.9 5.7-6.1 5.6-22.4 5.7 14.2 5.7-.1h5.6l5.7 5 5.7-13 5.6 16.1 5.7-4.7 5.7-4.2 5.6 2.9 5.7-4.3 5.7 2.8 5.7-12.3 5.6-50.4 5.7 65.7 5.7-2.6 5.6 3.9 5.7-6.6 5.7 14.6 5.6-12.2 5.7.8 5.7-10.2 5.6 11.8 5.7-2.2 5.7-5.8 5.6 6.1 5.7-8.4" fill="none" color="#000"/><text transform="translate(475.5 467.9)" stroke="none" fill="#000" font-family="Arial" font-size="12" text-anchor="end" color="#000"><tspan>score p10=1282</tspan></text><path stroke="#56B4E9" d="M483.8 464H526" fill="none" color="#000"/><g><text transform="translate(475.5 485.9)" stroke="none" fill="#000" font-family="Arial" font-size="12" text-anchor="end" color="#000"><tspan>score median=3500</tspan></text><path stroke="#E69F00" d="M483.8 482H526" fill="none" color="#000"/></g><g fill="none" color="#000" stroke="currentColor"><path stroke="#000" d="M53.9 18.1V428H615V18.1H53.9z"/></g></svg>

<?xml version="1.0" encoding="utf-8"  standalone="no"?>
<svg 
 width="640" height="500"
 viewBox="0 0 640 500"
 xmlns="http://www.w3.org/2000/svg"
 xmlns:xlink="http://www.w3.org/1999/xlink"
>

<title>Gnuplot</title>
<desc>Produced by GNUPLOT 5.4 patchlevel 0 </desc>

<g id="gnuplot_canvas">

<rect x="0" y="0" width="640" height="500" fill="#ffffff"/>
<defs>

	<circle id='gpDot' r='0.5' stroke-width='0.5' stroke='currentColor'/>
	<path id='gpPt0' stroke-width='0.222' stroke='currentColor' d='M-1,0 h2 M0,-1 v2'/>
	<path id='gpPt1' stroke-width='0.222' stroke='currentColor' d='M-1,-1 L1,1 M1,-1 L-1,1'/>
	<path id='gpPt2' stroke-width='0.222' stroke='currentColor' d='M-1,0 L1,0 M0,-1 L0,1 M-1,-1 L1,1 M-1,1 L1,-1'/>
	<rect id='gpPt3' stroke-width='0.222' stroke='currentColor' x='-1' y='-1' width='2' height='2'/>
	<rect id='gpPt4' stroke-width='0.222' stroke='currentColor' fill='currentColor' x='-1' y='-1' width='2' height='2'/>
	<circle id='gpPt5' stroke-width='0.222' stroke='currentColor' cx='0' cy='0' r='1'/>
	<use xlink:href='#gpPt5' id='gpPt6' fill='currentColor' stroke='none'/>
	<path id='gpPt7' stroke-width='0.222' stroke='currentColor' d='M0,-1.33 L-1.33,0.67 L1.33,0.67 z'/>
	<use xlink:href='#gpPt7' id='gpPt8' fill='currentColor' stroke='none'/>
	<use xlink:href='#gpPt7' id='gpPt9' stroke='currentColor' transform='rotate(180)'/>
	<use xlink:href='#gpPt9' id='gpPt10' fill='currentColor' stroke='none'/>
	<use xlink:href='#gpPt3' id='gpPt11' stroke='currentColor' transform='rotate(45)'/>
	<use xlink:href='#gpPt11' id='gpPt12' fill='currentColor' stroke='none'/>
	<path id='gpPt13' stroke-width='0.222' stroke='currentColor' d='M0,1.330 L1.265,0.411 L0.782,-1.067 L-0.782,-1.076 L-1.265,0.411 z'/>
	<use xlink:href='#gpPt13' id='gpPt14' fill='currentColor' stroke='none'/>
	<filter id='textbox' filterUnits='objectBoundingBox' x='0' y='0' height='1' width='1'>
	  <feFlood flood-color='#FFFFFF' flood-opacity='1' result='bgnd'/>
	  <feComposite in='SourceGraphic' in2='bgnd' operator='atop'/>
	</filter>
	<filter id='greybox' filterUnits='objectBoundingBox' x='0' y='0' height='1' width='1'>
	  <feFlood flood-color='lightgrey' flood-opacity='1' result='grey'/>
	  <feComposite in='SourceGraphic' in2='grey' operator='atop'/>
	</filter>
</defs>
<g fill="none" color="#FFFFFF" stroke="black" stroke-width="1.00" stroke-linecap="butt" stroke-linejoin="miter">
</g>
<g fill="none" color="black" stroke="currentColor" stroke-width="1.00" stroke-linecap="butt" stroke-linejoin="miter">
	<path stroke='black'  d='M53.9,422.7 L62.9,422.7 M615.0,422.7 L606.0,422.7  '/>	<g transform="translate(45.6,426.6)" stroke="none" fill="black" font-family="Arial" font-size="12.00"  text-anchor="end">
		<text><tspan font-family="Arial" > 0</tspan></text>
	</g>
</g>
<g fill="none" color="black" stroke="currentColor" stroke-width="1.00" stroke-linecap="butt" stroke-linejoin="miter">
	<path stroke='black'  d='M53.9,369.5 L62.9,369.5 M615.0,369.5 L606.0,369.5  '/>	<g transform="translate(45.6,373.4)" stroke="none" fill="black" font-family="Arial" font-size="12.00"  text-anchor="end">
		<text><tspan font-family="Arial" > 100</tspan></text>
	</g>
</g>
<g fill="none" color="black" stroke="currentColor" stroke-width="1.00" stroke-linecap="butt" stroke-linejoin="miter">
	<path stroke='black'  d='M53.9,316.2 L62.9,316.2 M615.0,316.2 L606.0,316.2  '/>	<g transform="translate(45.6,320.1)" stroke="none" fill="black" font-family="Arial" font-size="12.00"  text-anchor="end">
		<text><tspan font-family="Arial" > 200</tspan></text>
	</g>
</g>
<g fill="none" color="black" stroke="currentColor" stroke-width="1.00" stroke-linecap="butt" stroke-linejoin="miter">
	<path stroke='black'  d='M53.9,263.0 L62.9,263.0 M615.0,263.0 L606.0,263.0  '/>	<g transform="translate(45.6,266.9)" stroke="none" fill="black" font-family="Arial" font-size="12.00"  text-anchor="end">
		<text><tspan font-family="Arial" > 300</tspan></text>
	</g>
</g>
<g fill="none" color="black" stroke="currentColor" stroke-width="1.00" stroke-linecap="butt" stroke-linejoin="miter">
	<path stroke='black'  d='M53.9,209.7 L62.9,209.7 M615.0,209.7 L606.0,209.7  '/>	<g transform="translate(45.6,213.6)" stroke="none" fill="black" font-family="Arial" font-size="12.00"  text-anchor="end">
		<text><tspan font-family="Arial" > 400</tspan></text>
	</g>
</g>
<g fill="none" color="black" stroke="currentColor" stroke-width="1.00" stroke-linecap="butt" stroke-linejoin="miter">
	<path stroke='black'  d='M53.9,156.5 L62.9,156.5 M615.0,156.5 L606.0,156.5  '/>	<g transform="translate(45.6,160.4)" stroke="none" fill="black" font-family="Arial" font-size="12.00"  text-anchor="end">
		<text><tspan font-family="Arial" > 500</tspan></text>
	</g>
</g>
<g fill="none" color="black" stroke="currentColor" stroke-width="1.00" stroke-linecap="butt" stroke-linejoin="miter">
	<path stroke='black'  d='M53.9,103.3 L62.9,103.3 M615.0,103.3 L606.0,103.3  '/>	<g transform="translate(45.6,107.2)" stroke="none" fill="black" font-family="Arial" font-size="12.00"  text-anchor="end">
		<text><tspan font-family="Arial" > 600</tspan></text>
	</g>
</g>
<g fill="none" color="black" stroke="currentColor" stroke-width="1.00" stroke-linecap="butt" stroke-linejoin="miter">
	<path stroke='black'  d='M53.9,50.0 L62.9,50.0 M615.0,50.0 L606.0,50.0  '/>	<g transform="translate(45.6,53.9)" stroke="none" fill="black" font-family="Arial" font-size="12.00"  text-anchor="end">
		<text><tspan font-family="Arial" > 700</tspan></text>
	</g>
</g>
<g fill="none" color="black" stroke="currentColor" stroke-width="1.00" stroke-linecap="butt" stroke-linejoin="miter">
	<path stroke='black'  d='M53.9,428.0 L53.9,419.0 M53.9,18.1 L53.9,27.1  '/>	<g transform="translate(53.9,449.9)" stroke="none" fill="black" font-family="Arial" font-size="12.00"  text-anchor="middle">
		<text><tspan font-family="Arial" > 0</tspan></text>
	</g>
</g>
<g fill="none" color="black" stroke="currentColor" stroke-width="1.00" stroke-linecap="butt" stroke-linejoin="miter">
	<path stroke='black'  d='M110.6,428.0 L110.6,419.0 M110.6,18.1 L110.6,27.1  '/>	<g transform="translate(110.6,449.9)" stroke="none" fill="black" font-family="Arial" font-size="12.00"  text-anchor="middle">
		<text><tspan font-family="Arial" > 10</tspan></text>
	</g>
</g>
<g fill="none" color="black" stroke="currentColor" stroke-width="1.00" stroke-linecap="butt" stroke-linejoin="miter">
	<path stroke='black'  d='M167.3,428.0 L167.3,419.0 M167.3,18.1 L167.3,27.1  '/>	<g transform="translate(167.3,449.9)" stroke="none" fill="black" font-family="Arial" font-size="12.00"  text-anchor="middle">
		<text><tspan font-family="Arial" > 20</tspan></text>
	</g>
</g>
<g fill="none" color="black" stroke="currentColor" stroke-width="1.00" stroke-linecap="butt" stroke-linejoin="miter">
	<path stroke='black'  d='M223.9,428.0 L223.9,419.0 M223.9,18.1 L223.9,27.1  '/>	<g transform="translate(223.9,449.9)" stroke="none" fill="black" font-family="Arial" font-size="12.00"  text-anchor="middle">
		<text><tspan font-family="Arial" > 30</tspan></text>
	</g>
</g>
<g fill="none" color="black" stroke="currentColor" stroke-width="1.00" stroke-linecap="butt" stroke-linejoin="miter">
	<path stroke='black'  d='M280.6,428.0 L280.6,419.0 M280.6,18.1 L280.6,27.1  '/>	<g transform="translate(280.6,449.9)" stroke="none" fill="black" font-family="Arial" font-size="12.00"  text-anchor="middle">
		<text><tspan font-family="Arial" > 40</tspan></text>
	</g>
</g>
<g fill="none" color="black" stroke="currentColor" stroke-width="1.00" stroke-linecap="butt" stroke-linejoin="miter">
	<path stroke='black'  d='M337.3,428.0 L337.3,419.0 M337.3,18.1 L337.3,27.1  '/>	<g transform="translate(337.3,449.9)" stroke="none" fill="black" font-family="Arial" font-size="12.00"  text-anchor="middle">
		<text><tspan font-family="Arial" > 50</tspan></text>
	</g>
</g>
<g fill="none" color="black" stroke="currentColor" stroke-width="1.00" stroke-linecap="butt" stroke-linejoin="miter">
	<path stroke='black'  d='M394.0,428.0 L394.0,419.0 M394.0,18.1 L394.0,27.1  '/>	<g transform="translate(394.0,449.9)" stroke="none" fill="black" font-family="Arial" font-size="12.00"  text-anchor="middle">
		<text><tspan font-family="Arial" > 60</tspan></text>
	</g>
</g>
<g fill="none" color="black" stroke="currentColor" stroke-width="1.00" stroke-linecap="butt" stroke-linejoin="miter">
	<path stroke='black'  d='M450.6,428.0 L450.6,419.0 M450.6,18.1 L450.6,27.1  '/>	<g transform="translate(450.6,449.9)" stroke="none" fill="black" font-family="Arial" font-size="12.00"  text-anchor="middle">
		<text><tspan font-family="Arial" > 70</tspan></text>
	</g>
</g>
<g fill="none" color="black" stroke="currentColor" stroke-width="1.00" stroke-linecap="butt" stroke-linejoin="miter">
	<path stroke='black'  d='M507.3,428.0 L507.3,419.0 M507.3,18.1 L507.3,27.1  '/>	<g transform="translate(507.3,449.9)" stroke="none" fill="black" font-family="Arial" font-size="12.00"  text-anchor="middle">
		<text><tspan font-family="Arial" > 80</tspan></text>
	</g>
</g>
<g fill="none" color="black" stroke="currentColor" stroke-width="1.00" stroke-linecap="butt" stroke-linejoin="miter">
	<path stroke='black'  d='M564.0,428.0 L564.0,419.0 M564.0,18.1 L564.0,27.1  '/>	<g transform="translate(564.0,449.9)" stroke="none" fill="black" font-family="Arial" font-size="12.00"  text-anchor="middle">
		<text><tspan font-family="Arial" > 90</tspan></text>
	</g>
</g>
<g fill="none" color="black" stroke="currentColor" stroke-width="1.00" stroke-linecap="butt" stroke-linejoin="miter">
</g>
<g fill="none" color="black" stroke="currentColor" stroke-width="1.00" stroke-linecap="butt" stroke-linejoin="miter">
	<path stroke='black'  d='M53.9,18.1 L53.9,428.0 L615.0,428.0 L615.0,18.1 L53.9,18.1 Z  '/></g>
<g fill="none" color="black" stroke="currentColor" stroke-width="1.00" stroke-linecap="butt" stroke-linejoin="miter">
</g>
	<g id="gnuplot_plot_1" ><title>empty</title>
<g fill="none" color="black" stroke="currentColor" stroke-width="1.00" stroke-linecap="butt" stroke-linejoin="miter">
	<g transform="translate(275.6,467.9)" stroke="none" fill="black" font-family="Arial" font-size="12.00"  text-anchor="end">
		<text><tspan font-family="Arial" >empty</tspan></text>
	</g>
</g>
<g fill="none" color="black" stroke="currentColor" stroke-width="1.00" stroke-linecap="butt" stroke-linejoin="miter">
	<path stroke='rgb(148,   0, 211)'  d='M283.9,464.0 L326.1,464.0 M53.9,419.4 L59.6,419.6 L65.2,419.3 L70.9,419.3 L76.6,419.6 L82.2,419.4
		L87.9,419.4 L93.6,419.2 L99.2,419.6 L104.9,419.2 L110.6,419.2 L116.2,419.2 L121.9,419.4 L127.6,418.7
		L133.2,419.6 L138.9,419.5 L144.6,419.2 L150.3,419.6 L155.9,419.6 L161.6,419.1 L167.3,419.6 L172.9,419.5
		L178.6,419.6 L184.3,419.3 L189.9,419.6 L195.6,419.0 L201.3,419.3 L206.9,419.5 L212.6,419.5 L218.3,419.4
		L223.9,419.5 L229.6,419.4 L235.3,419.3 L240.9,419.9 L246.6,419.6 L252.3,418.8 L257.9,419.5 L263.6,419.0
		L269.3,419.6 L274.9,419.4 L280.6,419.5 L286.3,419.7 L291.9,419.1 L297.6,419.6 L303.3,418.9 L308.9,419.5
		L314.6,419.4 L320.3,419.4 L325.9,420.1 L331.6,418.9 L337.3,419.3 L343.0,419.6 L348.6,419.5 L354.3,419.2
		L360.0,419.6 L365.6,419.7 L371.3,419.6 L377.0,419.6 L382.6,419.6 L388.3,419.5 L394.0,419.3 L399.6,419.6
		L405.3,419.5 L411.0,419.6 L416.6,419.9 L422.3,419.6 L428.0,419.6 L433.6,419.6 L439.3,419.5 L445.0,419.3
		L450.6,419.5 L456.3,419.2 L462.0,419.6 L467.6,419.6 L473.3,419.6 L479.0,419.6 L484.6,419.6 L490.3,419.9
		L496.0,419.6 L501.6,419.6 L507.3,419.2 L513.0,419.9 L518.6,419.5 L524.3,419.6 L530.0,419.5 L535.7,419.6
		L541.3,419.7 L547.0,419.5 L552.7,419.6 L558.3,419.6 L564.0,419.8 L569.7,420.0 L575.3,419.5 L581.0,419.5
		L586.7,420.0 L592.3,419.2 L598.0,419.6 L603.7,419.6 L609.3,419.0 L615.0,420.0  '/></g>
	</g>
	<g id="gnuplot_plot_2" ><title>pages</title>
<g fill="none" color="black" stroke="currentColor" stroke-width="1.00" stroke-linecap="butt" stroke-linejoin="miter">
	<g transform="translate(275.6,485.9)" stroke="none" fill="black" font-family="Arial" font-size="12.00"  text-anchor="end">
		<text><tspan font-family="Arial" >pages</tspan></text>
	</g>
</g>
<g fill="none" color="black" stroke="currentColor" stroke-width="1.00" stroke-linecap="butt" stroke-linejoin="miter">
	<path stroke='rgb(  0, 158, 115)'  d='M283.9,482.0 L326.1,482.0 M53.9,26.0 L59.6,55.4 L65.2,122.8 L70.9,107.0 L76.6,117.2 L82.2,97.4
		L87.9,113.1 L93.6,112.7 L99.2,100.9 L104.9,100.7 L110.6,111.5 L116.2,123.3 L121.9,118.4 L127.6,108.5
		L133.2,123.4 L138.9,103.1 L144.6,108.5 L150.3,104.5 L155.9,109.7 L161.6,99.3 L167.3,99.7 L172.9,105.9
		L178.6,114.4 L184.3,115.8 L189.9,100.9 L195.6,107.4 L201.3,109.8 L206.9,122.2 L212.6,113.5 L218.3,115.4
		L223.9,101.8 L229.6,99.1 L235.3,117.5 L240.9,111.2 L246.6,118.3 L252.3,112.2 L257.9,112.4 L263.6,113.6
		L269.3,105.6 L274.9,105.5 L280.6,111.1 L286.3,112.7 L291.9,112.6 L297.6,94.4 L303.3,98.1 L308.9,104.5
		L314.6,102.5 L320.3,113.5 L325.9,111.0 L331.6,98.8 L337.3,114.1 L343.0,119.0 L348.6,127.5 L354.3,109.4
		L360.0,109.6 L365.6,105.1 L371.3,119.8 L377.0,104.0 L382.6,112.4 L388.3,111.6 L394.0,104.8 L399.6,115.0
		L405.3,99.7 L411.0,112.6 L416.6,109.0 L422.3,106.5 L428.0,103.3 L433.6,116.4 L439.3,104.7 L445.0,123.2
		L450.6,110.0 L456.3,122.9 L462.0,116.8 L467.6,94.4 L473.3,108.6 L479.0,108.5 L484.6,108.5 L490.3,113.5
		L496.0,100.5 L501.6,116.6 L507.3,111.9 L513.0,107.7 L518.6,110.6 L524.3,106.3 L530.0,109.1 L535.7,96.8
		L541.3,46.4 L547.0,112.1 L552.7,109.5 L558.3,113.4 L564.0,106.8 L569.7,121.4 L575.3,109.2 L581.0,110.0
		L586.7,99.8 L592.3,111.6 L598.0,109.4 L603.7,103.6 L609.3,109.7 L615.0,101.3  '/></g>
	</g>
	<g id="gnuplot_plot_3" ><title>score p10=1282</title>
<g fill="none" color="black" stroke="currentColor" stroke-width="1.00" stroke-linecap="butt" stroke-linejoin="miter">
	<g transform="translate(475.5,467.9)" stroke="none" fill="black" font-family="Arial" font-size="12.00"  text-anchor="end">
		<text><tspan font-family="Arial" >score p10=1282</tspan></text>
	</g>
</g>
<g fill="none" color="black" stroke="currentColor" stroke-width="1.00" stroke-linecap="butt" stroke-linejoin="miter">
	<path stroke='rgb( 86, 180, 233)'  d='M483.8,464.0 L526.0,464.0  '/></g>
	</g>
	<g id="gnuplot_plot_4" ><title>score median=3500</title>
<g fill="none" color="black" stroke="currentColor" stroke-width="1.00" stroke-linecap="butt" stroke-linejoin="miter">
	<g transform="translate(475.5,485.9)" stroke="none" fill="black" font-family="Arial" font-size="12.00"  text-anchor="end">
		<text><tspan font-family="Arial" >score median=3500</tspan></text>
	</g>
</g>
<g fill="none" color="black" stroke="currentColor" stroke-width="1.00" stroke-linecap="butt" stroke-linejoin="miter">
	<path stroke='rgb(230, 159,   0)'  d='M483.8,482.0 L526.0,482.0  '/></g>
	</g>
<g fill="none" color="#FFFFFF" stroke="rgb(230, 159,   0)" stroke-width="2.00" stroke-linecap="butt" stroke-linejoin="miter">
</g>
<g fill="none" color="black" stroke="currentColor" stroke-width="2.00" stroke-linecap="butt" stroke-linejoin="miter">
</g>
<g fill="none" color="black" stroke="black" stroke-width="1.00" stroke-linecap="butt" stroke-linejoin="miter">
</g>
<g fill="none" color="black" stroke="currentColor" stroke-width="1.00" stroke-linecap="butt" stroke-linejoin="miter">
	<path stroke='black'  d='M53.9,18.1 L53.9,428.0 L615.0,428.0 L615.0,18.1 L53.9,18.1 Z  '/></g>
<g fill="none" color="black" stroke="currentColor" stroke-width="1.00" stroke-linecap="butt" stroke-linejoin="miter">
</g>
</g>
</svg>
